X: 5
T: The Castle Jig
C: Sen Ryan
M: 6/8
L: 1/8
R: jig
K: Ador
|: B |\ 
c2 A BAG | AGE DBG | A^GA E^DE | DEG AGE |
c2 A B/c/dB | AGE DBE | A^GA E^DE | DBG A2 :|
|: B |\
cBA a^ga | bag edB | GBd gfg | GB/c/d cBA |
c2 c d^cd | e^de gab | age dBG | E>FG A2 :|
